!!!COM: Mozart, Wolfgang Amadeus
!!!CDT: 1756/01/27/-1791/12/05/
!!!CNT: German
!!!OTL: Piano Sonata No. 13 in B-flat major
!!!SCT1: K<sup>1</sup> 333
!!!SCT2: K<sup>6</sup> 315c
!!!OMV: 3
!!!OMD: Allegro grazioso
!!!ODT: ~1783///
**kern	**kern	**dynam
*staff2	*staff1	*staff1/2
*clefF4	*clefG2	*clefG2
*k[b-e-]	*k[b-e-]	*k[b-e-]
*B-:	*B-:	*B-:
*M4/4	*M4/4	*M4/4
*met(c)	*met(c)	*met(c)
*MM144	*MM144	*MM144
=1-	=1-	=1-
4r	(4.ff	p
4B-	.	.
.	8dd	.
4d	4b-)	.
4g	4b-	.
=2	=2	=2
4c	(4ee-	.
4e-	4gg)	.
4f	4a	.
4e-	8r	.
.	8a	.
=3	=3	=3
4d	(8ccL	.
.	8b-)	.
4A	(8dd	.
.	8ccJ)	.
4B-	(8ee-L	.
.	8dd)	.
4E- 4c	(8ff	.
.	8ee-J)	.
=4	=4	=4
[2F (2B-	(4.dd	.
.	16ee-LL	.
.	16ddJJ	.
4F] 4A)	8ccL	.
.	8dd	.
4r	8ee-	.
.	8eenJ)	.
=5	=5	=5
4r	(4.ff	.
4B-	.	.
.	24ee-XLL	.
.	24dd	.
.	24ccJJ	.
4d	4b-)	.
4g	4b-	.
=6	=6	=6
(4c	(4ee-	.
4e-)	4gg)	.
4f	4a	.
4e-	8r	.
.	8a	.
=7	=7	=7
*^	*	*
4ryy	4d	(8b-L>	.
.	.	8dd)	.
4e-	4E-	(8g	.
.	.	8ccJ)	.
(4d	2F	(4b-/	.
4c)	.	4a)	.
*v	*v	*	*
=8	=8	=8
4B-	8b-L	f
.	8f	.
4r	8g	.
.	8aJ	.
2r	8b-L	.
.	8cc	.
.	8dd	.
.	8ee-J	.
=9	=9	=9
(8B-L	(4.ff	.
8f	.	.
8d	.	.
8fJ	8dd	.
8GL	4b-)	.
8d	.	.
8B-	4b-	.
8dJ	.	.
=10	=10	=10
8E-L	(4ee-	.
8c	.	.
.	32ffqLLL	.
.	32ee-q	.
.	32ddq	.
.	32ee-qJJJ	.
8G	4gg)	.
8cJ	.	.
8FL	4a	.
8e-	.	.
8c	8r	.
8e-J	8a	.
=11	=11	=11
*^	*	*
4ryy	4d)	(8ccL	.
.	.	8b-)	.
2f	4A	(8dd	.
.	.	8ccJ)	.
.	4B-	(8ee-L	.
.	.	8dd)	.
4c	4E-	(8ff	.
.	.	8ee-J)	.
=12	=12	=12	=12
(2B-	[2F	(4.dd	.
.	.	16ee-LL	.
.	.	16ddJJ	.
4A)	4F]	8ccL	.
.	.	8dd	.
4r	4r	8ee-	.
.	.	8eenJ)	.
*v	*v	*	*
=13	=13	=13
(8B-L	(4.ff	.
8f	.	.
8d	.	.
8fJ	24ee-XLL	.
.	24dd	.
.	24ccJJ	.
8GL	8b-L)	.
8d	8b-	.
8B-	8b-	.
8dJ	8b-J	.
=14	=14	=14
8E-L	(4ee-	.
8c	.	.
.	32ffqLLL	.
.	32ee-q	.
.	32ddq	.
.	32ee-qJJJ	.
8G	4gg)	.
8cJ	.	.
8FL	4a	.
8e-	.	.
8c	8r	.
8e-J)	8aa	.
=15	=15	=15
*^	*	*
2B-	4D	(12bb-L	.
.	.	12ff	.
.	.	12ddJ	.
.	4E-	12ggL	.
.	.	12ee-	.
.	.	12ccJ	.
4d	2F	12ffL	.
.	.	12dd	.
.	.	12b-J	.
4e-	.	12ee-L	.
.	.	12cc	.
.	.	12aJ)	.
*v	*v	*	*
=16	=16	=16
4B- 4d	4b-	.
4BB-	8r	.
.	8f'	.
2r	8b-'L	.
.	8a'	.
.	8b-'	.
.	8cc'J	.
=17	=17	=17
4r	4dd	.
(4B-	4b- 4dd	.
4G	4b- (4dd	.
4E-)	4cc 4ee-)	.
=18	=18	=18
4F	4a 4cc	.
4FF	8r	.
.	8f'	.
2r	8cc'L	.
.	8b-'	.
.	8cc'	.
.	8dd'J	.
=19	=19	=19
4r	4ee-	.
(4c	4g 4ee-	.
4A	4cc (4ee-	.
4F)	4a 4ff)	.
=20	=20	=20
4B-	4b- 4dd	.
4BB-	8r	.
.	8b-'	.
2r	8dd'L	.
.	8cc'	.
.	8dd'	.
.	8een'J	.
=21	=21	=21
8r	4ff	.
(8AL	.	.
8c	12r	.
.	(12ffL	.
8AJ	.	.
.	12ggJ	.
4f)	12aaL	.
.	12gg	.
.	12ffJ	.
4r	12eenL	.
.	12dd	.
.	12ccJ	.
=22	=22	=22
8r	4b-)	.
(8GL	.	.
8B-	12r	.
.	(12eenL	.
8GJ	.	.
.	12ffJ	.
4en)	12ggL	.
.	12ff	.
.	12eeJ	.
4r	12ddL	.
.	12cc	.
.	12b-J	.
=23	=23	=23
4f	16aLL<	.
.	16cc	.
.	16b-	.
.	16aJJ	.
4r	16b-LL	.
.	16cc	.
.	16dd	.
.	16eenJJ	.
4r	16ffLL	.
.	16gg	.
.	16aa	.
.	16bb-JJ	.
4F	8ccc)	.
.	8f 8a	.
=24	=24	=24
8C'L	(4f 4a	.
(8c	.	.
8Bn	4en) 4g	.
8cJ	.	.
8B-L	(4.gg	.
8c	.	.
8B-	.	.
8cJ	16eenLL	.
.	16ccJJ	.
=25	=25	=25
8AL	4ff	.
8c	.	.
8A	4ff#)	.
8cJ	.	.
8B-L	(4.gg	.
8c	.	.
8B-	.	.
8cJ	16eenLL	.
.	16ccJJ	.
=26	=26	=26
8AL	4ffn)	.
8c	.	.
8A	4r	.
8cJ	.	.
8B-L	8gg'	.
8c	(4gg	.
8B-	.	.
8cJ	16eenLL	.
.	16ccJJ	.
=27	=27	=27
8AL	8ff'L)	.
8c	8ff'	.
8A	8ff#'	.
8cJ	8ff#'J	.
8B-L	8gg'	.
8c	(4gg	.
8B-	.	.
8cJ	16eenLL	.
.	16ccJJ	.
=28	=28	=28
8AL	4ffn)	.
8c	.	.
8A	4r	.
8cJ	.	.
8B-L	(16ff#LL	.
.	16gg	.
8c	16aa	.
.	16ggJJ	.
8B-	16ffnLL	.
.	16een	.
8cJ	16dd	.
.	16ccJJ)	.
=29	=29	=29
4A)	(16ffLL	.
.	16cc	.
.	16aa	.
.	16ffJJ	.
4r	16cccLL	.
.	16aa	.
.	16ccc	.
.	16aaJJ	.
4r	16cccLL	.
.	16bb-	.
.	16aa	.
.	16ggJJ	.
*clefG2	*	*
4A 4f	16ffLL	.
.	16ee-X	.
.	16dd	.
.	16ccJJ	.
=30	=30	=30
4B- 4f	16ddLL	.
.	16b-	.
.	16ff	.
.	16ddJJ	.
4r	16bb-LL	.
.	16ff	.
.	16ddd	.
.	16bb-JJ	.
4r	16dddLL	.
.	16ccc	.
.	16bb-	.
.	16aaJJ	.
4B- 4f 4g	16ggLL	.
.	16ff	.
.	16een	.
.	16ddJJ	.
=31	=31	=31
8cL	2cc)	.
(8a	.	.
8f	.	.
8aJ	.	.
8cL	4.ggTT	.
8b-	.	.
8en	.	.
8b-J	16ffLL	.
.	16ggJJ	.
=32	=32	=32
4f)	(16aaLL	.
.	16bb-	.
.	16ccc	.
.	16bb-JJ	.
8r	16aaLL	.
.	16gg	.
8g	16ff	.
.	16eenJJ	.
4a	16ffLL	.
.	16gg	.
.	16aa	.
.	16ggJJ	.
8r	16ffLL	.
.	16ee-	.
*clefF4	*	*
8A	16dd	.
.	16cc#JJ	.
=33	=33	=33
4B-	16ddLL	.
.	16een	.
.	16ff	.
.	16eeJJ	.
4r	16ddLL	.
.	16ccn	.
.	16b-	.
.	16aJJ	.
4BBB- 4BB-	16gLL	.
.	16a	.
.	16b-	.
.	16aJJ	.
4r	16gLL	.
.	16f	.
.	16en	.
.	16dJJ	.
=34	=34	=34
(8CL	8cL	.
8A	16dL	.
.	16enJJ	.
8F	16fLL	.
.	16g	.
8AJ	16a	.
.	16b-JJ	.
8CL	16ccLL	.
.	16dd	.
8A	16een	.
.	16ffJJ	.
8F	16ggLL	.
.	16aa	.
8AJ	16bb-	.
.	16cccJJ)	.
=35	=35	=35
.	(32ffqLLL	.
.	32ggq	.
.	32aaqJJJ	.
8CL	1ggTT)	.
8B-	.	.
8En	.	.
8B-J	.	.
8CL	.	.
8B-	.	.
8E	.	.
8B-J	.	.
.	(16ffqLL	.
.	16ggqJJ)	.
=36	=36	=36
*^	*	*
2.ryy	4F 4A)	8ffL	.
.	.	8ffJ	.
.	4F 4A	8r	.
.	.	8ff	.
.	4r	8ffL	.
.	.	8ffJ	.
(4A	4F	8r	.
.	.	8ff	.
=37	=37	=37	=37
4G 4B-)	4F	8ffL	.
.	.	8ffJ	.
4G 4B-	4F	8r	.
.	.	8ff	.
4r	4r	8ffL	.
.	.	8ffJ	.
4G# (4Bn	4F	8r	.
.	.	8ff	.
=38	=38	=38	=38
4A 4c	2F	8ffL	.
.	.	8ffJ	.
4A 4c#	.	8r	.
.	.	8ff	.
4B-X 4d	2F	8ffL	.
.	.	8ffJ	.
4Bn 4d)	.	8r	.
.	.	8ff	.
*v	*v	*	*
=39	=39	=39
1F 1cn 1e-	(8ffL	.
.	8aa)	.
.	(8aa	.
.	8cccJ)	.
.	(8cccL	.
.	8eee-X)	.
.	(8eee-	.
.	8cccJ)	.
=40	=40	=40
1r	(8cccL	.
.	8aa)	.
.	(8aa	.
.	8ffJ)	.
.	(8ffL	.
.	8een)	.
.	(8ee	.
.	8ffJ)	.
=41	=41	=41
4r	(4.ff	p
4B-	.	.
.	8dd)	.
4d	4b-	.
4g	4b-	.
=42	=42	=42
4c	(4ee-	.
4e-	4gg)	.
4f	4a	.
4e-	8r	.
.	8a	.
=43	=43	=43
4d	(8ccL	.
.	8b-)	.
4A	(8dd	.
.	8ccJ)	.
4B-	(8ee-L	.
.	8dd)	.
4E- 4c	(8ff	.
.	8ee-J)	.
=44	=44	=44
[2F (2B-	(4.dd	.
.	16ee-LL	.
.	16ddJJ	.
4F] 4A)	8ccL	.
.	8dd	.
4r	8ee-	.
.	8eenJ)	.
=45	=45	=45
4r	(4.ff	.
4B-	.	.
.	24ee-XLL	.
.	24dd	.
.	24ccJJ	.
4d	4b-)	.
4g	4b-	.
=46	=46	=46
(4c	(4ee-	.
4e-)	4gg)	.
4f	4a	.
4e-	8r	.
.	8a	.
=47	=47	=47
*^	*	*
4ryy	4d	(8b-L>	.
.	.	8dd)	.
4e-	4E-	(8g	.
.	.	8ccJ)	.
4d	2F	(4b-/	.
4c	.	4a)	.
*v	*v	*	*
=48	=48	=48
4B-	8b-L	f
.	8f	.
4r	8g	.
.	8aJ	.
2r	8b-L	.
.	8cc	.
.	8dd	.
.	8ee-J	.
=49	=49	=49
(8B-L	(4.ff	.
8f	.	.
8d	.	.
8fJ	8dd	.
8GL	4b-)	.
8d	.	.
8B-	4b-	.
8dJ	.	.
=50	=50	=50
8E-L	(4ee-	.
8c	.	.
.	32ffqLLL	.
.	32ee-q	.
.	32ddq	.
.	32ee-qJJJ	.
8G	4gg)	.
8cJ	.	.
8FL	4a	.
8e-	.	.
8c	8r	.
8e-J	8a	.
=51	=51	=51
*^	*	*
4ryy	4d)	(8ccL	.
.	.	8b-)	.
2f	4A	(8dd	.
.	.	8ccJ)	.
.	4B-	(8ee-L	.
.	.	8dd)	.
4c	4E-	(8ff	.
.	.	8ee-J)	.
=52	=52	=52	=52
(2B-	[2F	(4.dd	.
.	.	16ee-LL	.
.	.	16ddJJ	.
4A)	4F]	8ccL	.
.	.	8dd	.
4r	4r	8ee-	.
.	.	8eenJ)	.
*v	*v	*	*
=53	=53	=53
(8B-L	(4.ff	.
8f	.	.
8d	.	.
8fJ	24ee-XLL	.
.	24dd	.
.	24ccJJ	.
8GL	8b-L)	.
8d	8b-	.
8B-	8b-	.
8dJ	8b-J	.
=54	=54	=54
8E-L	(4ee-	.
8c	.	.
.	32ffqLLL	.
.	32ee-q	.
.	32ddq	.
.	32ee-qJJJ	.
8G	4gg)	.
8cJ	.	.
8FL	4a	.
8e-	.	.
8c	8r	.
8e-J)	8aa	.
=55	=55	=55
*^	*	*
2B-	4D	(12bb-L	.
.	.	12ff	.
.	.	12ddJ	.
.	4E-	12ggL	.
.	.	12ee-	.
.	.	12ccJ	.
4d	2F	12ffL	.
.	.	12dd	.
.	.	12b-J	.
4e-	.	12ee-L	.
.	.	12cc	.
.	.	12aJ	.
=56	=56	=56	=56
4d	4B-	4b-)	.
4BB-	2.ryy	8r	.
.	.	8f'	.
2r	.	8b-'L	.
.	.	8a'	.
.	.	8b-'	.
.	.	8cc'J	.
*v	*v	*	*
=57	=57	=57
4r	4dd	.
(4B-	4b- 4dd	.
4G	4b- (4dd	.
4E-)	4cc 4ee-)	.
=58	=58	=58
4F	4a 4cc	.
4FF	8r	.
.	8f'	.
2r	8cc'L	.
.	8b-'	.
.	8cc'	.
.	8dd'J	.
=59	=59	=59
4r	4ee-	.
(4c	4g 4ee-	.
4A	4cc (4ee-	.
4F)	4a 4ff)	.
=60	=60	=60
4B-	4b- 4dd	.
4BB-	8r	.
.	8b-'	.
2r	8dd'L	.
.	8cc'	.
.	8dd'	.
.	8ee-'J	.
=61	=61	=61
4r	4ff'	.
4B-' (4d'	(4ff'	.
4B-' 4d'	4ff'	.
4B-' 4d')	4ff')	.
=62	=62	=62
*	*^	*
2A 2c	1ff#	8r	.
.	.	(8ccL	.
.	.	8dd	.
.	.	8ee-J)	.
2D 2A	.	(8ee-L	.
.	.	8dd)	.
.	.	(8dd	.
.	.	8ccJ)	.
=63	=63	=63	=63
*^	*	*	*
8r	1E-	2gg	2b-	.
(8GL	.	.	.	.
8A	.	.	.	.
8B-J)	.	.	.	.
(8B-L	.	2ryy	2cc#	.
8A)	.	.	.	.
(8A	.	.	.	.
8GJ)	.	.	.	.
*	*	*v	*v	*
=64	=64	=64	=64
4F#	4D	4dd	.
2.ryy	4r	8.r	.
.	.	(16d	.
.	2r	4dd)	.
.	.	4dd	.
*v	*v	*	*
=65	=65	=65
(8GL	(4.bb-	.
8B-	.	.
8d	.	.
8B-J	24aaLL	.
.	24gg	.
.	24ff#JJ	.
8GL	4gg)	.
8B-	.	.
8d	(4dd	.
8B-J	.	.
=66	=66	=66
8GL	4ee-)	.
8c	.	.
8e-	8.r	.
8cJ	.	.
.	(16g	.
8GL	4gg)	.
8c	.	.
8e-	4gg	.
8cJ	.	.
=67	=67	=67
8GL	(4.eee-	.
8c	.	.
8e-	.	.
8cJ	24dddLL	.
.	24ccc	.
.	24bbnJJ	.
8GL	4ccc)	.
8c	.	.
8e-	(4ee-	.
8cJ	.	.
=68	=68	=68
8GL	4dd)	.
8B-	.	.
8dJ)	8r	.
8r	(8cc#	.
2r	8ddL)	.
.	8bb-X'	.
.	8aa'	.
.	8gg'J	.
=69	=69	=69
4A 4c (4e-	(8.ff#L	.
.	32ggLL	.
.	32aaJJJ	.
8B- 8d)	8ggL)	.
8r	8gg'J	.
2r	(8ccc#L	.
.	8ddd)	.
.	8bb-'	.
.	8gg'J	.
=70	=70	=70
4A 4c (4e-	(8.ff#L	.
.	32ggLL	.
.	32aaJJJ	.
8B- 8d)	8ggL)	.
8r	8dd'J	.
2r	8gg'L	.
.	8gg'	.
.	8gg'	.
.	8gg'J	.
=71	=71	=71
*^	*	*
2B-	1E-	(8.ggL	.
.	.	32aaLL	.
.	.	32bb-JJJ	.
.	.	8aaL	.
.	.	8ggJ	.
2G	.	8ffnL	.
.	.	8ee-	.
.	.	8dd	.
.	.	8cc#J)	.
*v	*v	*	*
=72	=72	=72
4D 4F#	(8cc#L	.
.	8ddJ)	.
4D 4F# 4A	(4dd'	.
4D 4F# 4A	4dd'	.
4D 4F# 4A	4dd')	p
=73	=73	=73
.	(16cc#qLL	.
.	16ddq	.
.	16eenqJJ	.
4r	1dd)	.
4D 4Fn 4A	.	.
4D 4F 4A	.	.
4D 4F 4A	.	.
=74	=74	=74
4r	1ff	.
4D 4F 4B-	.	.
4D 4F 4B-	.	.
4D 4F 4B-	.	.
=75	=75	=75
4r	1A- 1d	f
4BB- 4F	.	.
4BB- 4F	.	.
4BB- 4F	.	.
=76	=76	=76
*	*^	*
4EE- 4E-	[2e-	4G	.
(4E-	.	2.ryy	p
4G	(8.e-L]	.	.
.	16B-k)	.	.
4A-	(8.d	.	.
.	16B-Jk)	.	.
*	*v	*v	*
=77	=77	=77
4G	(8.e-L	.
.	16B-k)	.
4D	(8.f	.
.	16B-Jk)	.
4E-	(8.gL	.
.	16B-k)	.
4F)	(8.a-	.
.	16B-Jk)	.
=78	=78	=78
4r	[2f	.
(4BB-	.	.
4D/	(8.fL]	.
.	16B-k)	.
4C#	(8.en	.
.	16B-Jk)	.
=79	=79	=79
4D	(8.fL	.
.	16B-k)	.
4En	(8.g	.
.	16B-Jk)	.
4F	(8.a-L	.
.	16B-k)	.
4D)	(8.b-	.
.	16B-Jk)	.
=80	=80	=80
4E-X	4g	.
4EE-	8r	.
.	8b-	.
4r	(8.ee-L	.
.	16ffk	.
4G 4e-	8.gg)	.
.	16b-'Jk	.
=81	=81	=81
4r	(8.ccL	.
.	16ddk	.
4A- 4e-	8.ee-)	.
.	16g'Jk	.
4r	(8.a-L<	.
.	16b-k	.
4c 4e-	8.cc)	.
.	16a-'Jk	.
=82	=82	=82
4B- 4e-	4g	.
4BB-	8r	.
.	8b-	.
4r	(8.ee-L	.
.	16ffk	.
4G 4e-	8.gg)	.
.	16bn'Jk	.
=83	=83	=83
4r	(8.ccL	.
.	16ddk	.
4A- 4e-	8.ee-)	.
.	16g'Jk	.
4r	(8.a-L<	.
.	16b-Xk	.
4c 4e-	8.cc)	.
.	16a-'Jk	.
=84	=84	=84
4B- 4e-	4g	.
4BB-	8r	.
.	8g	p
4r	(8b-L	.
.	8anJ)	.
4c 4e-	8r	.
.	8a	.
=85	=85	=85
4r	(8ccL	.
.	8b-J)	.
4G 4e-	8r	.
.	8bn	.
4A- 4e-	(8ddL	<
.	8cc)	.
4F 4A-	(8ee-	.
.	8ddJ)	.
=86	=86	=86
4G 4B-	(8ffL	.
.	8ee-)	.
4G 4B-	(8ff	.
.	8eenJ)	.
4F 4A- 4B-	(8ggL	.
.	8ff)	.
4E- 4G 4B-	(8aa-	.
.	8ggJ)	.
=87	=87	=87
4D 4F 4B-	(8bb-L	f
.	8aa-J)	.
4r	4r	.
2r	4r	.
.	8r	.
.	8ff	p
*clefG2	*	*
=88	=88	=88
*^	*	*
4e- 4b-	2ryy	(8.ggL	.
.	.	16ee-k)	.
4A- 4a-	.	(8.cc	.
.	.	16ffJk)	.
(4g	2B-	(4ee-	.
4f)	.	4dd)	.
*v	*v	*	*
*clefF4	*	*
=89	=89	=89
4D 4F 4B-	(8bb-L	f
.	8aa-J)	.
4r	4r	.
2r	4r	.
.	8r	.
.	8ff	p
*clefG2	*	*
=90	=90	=90
*^	*	*
4e- 4b-	2ryy	(8.ggL	.
.	.	16ee-k)	.
4A- 4a-	.	(8.cc	.
.	.	16ffJk)	.
(4g	2B-	(4ee-	.
4f)	.	4dd)	.
*v	*v	*	*
=91	=91	=91
.	(>32gqq	.
2r	()4.gg	.
.	8ee-	.
2e- 2g	4cc)	.
.	4cc	.
=92	=92	=92
(2d 2bn	(4ff	.
.	4aa-)	.
4f) 4a-	4bn	.
4r	8r	.
.	8b	.
=93	=93	=93
*^	*	*
1g	4e-	(8ddL	.
.	.	8cc)	.
.	4Bn	(8ee-	.
.	.	8ddJ)	.
.	4c	(8ffL	.
.	.	8ee-J)	.
.	4d	8r	.
.	.	8bn	.
=94	=94	=94	=94
2.g	4e-	(8ddL	.
.	.	8cc)	.
.	4Bn	(8ee-	.
.	.	8ddJ)	.
.	4c	(8ffL	.
.	.	8ee-)	.
4r	4r	(8ff	.
.	.	8eenJ)	.
*v	*v	*	*
=95	=95	=95
2r	(4.ff	.
.	8dd	.
2d 2f	4b-X)	.
.	4b-	.
=96	=96	=96
(2c 2an	(4ee-X	.
.	4gg-)	.
4e-) 4g-	4an	.
4r	8r	.
.	8a	.
=97	=97	=97
*^	*	*
1f	4d-	(8ccL	.
.	.	8b-)	.
.	4A	(8dd-	.
.	.	8ccJ)	.
.	4B-	(8ee-L	.
.	.	8dd-J)	.
.	4c	8r	.
.	.	8a	.
=98	=98	=98	=98
2.f	4d-	(8ccL	.
.	.	8b-)	.
.	4A	(8dd-	.
.	.	8ccJ	.
.	4B-	(8ee-L)	.
.	.	8dd-J)	.
4f	4B-	8r	.
.	.	8dd-	.
*v	*v	*	*
=99	=99	=99
4r	(8dd-L	.
.	8cc-J)	.
*clefF4	*	*
4A- 4f	8r	.
.	8cc-	.
4r	(8cc-L	.
.	8b-J)	.
4G- 4d-	8r	.
.	8b-	.
=100	=100	=100
4r	(8b-L	.
.	8aa-J)	.
4F 4dn	8r	.
.	8aa-	.
4r	(8aa-L	.
.	8gg-J)	.
4E- 4e-	8r	.
.	8gg-	.
=101	=101	=101
4r	(8gg-L	.
.	8ffJ)	.
4F 4d-	8r	.
.	8ff	.
4r	(8ffL	.
.	8eenJ)	.
4G- 4d-	8r	.
.	8ee	.
=102	=102	=102
*^	*	*
2en	1G-	(4.bb-SSs	.
.	.	8ccc	.
2B-	.	4ddd-)	.
.	.	4een	.
=103	=103	=103	=103
2An	1F	(8ffL	>
.	.	8een	.
.	.	8ff	.
.	.	8ccJ	]
2B-	.	8ee-L	.
.	.	8dd-	.
.	.	8cc	.
.	.	8b-J)	.
=104	=104	=104	=104
2A	1F	(8gg-L	>
.	.	8ff	.
.	.	8een	.
.	.	8ffJ	]
2B-	.	8ee-L	.
.	.	8dd-	.
.	.	8cc	.
.	.	8b-J)	.
*v	*v	*	*
=105	=105	=105
8fL	4a 4cc	.
8fJ	.	.
8r	4b- (4dd-	.
8f	.	.
8fL	4a 4cc)	.
8fJ	.	.
8r	4b- 4een	.
8f	.	.
=106	=106	=106
8fL	4a 4ff	.
8fJ	.	.
8r	4b- (4dd-	.
8f	.	.
8fL	4a 4cc)	.
8fJ	.	.
8r	4b- 4een	.
8f	.	.
=107	=107	=107
*^	*	*
4F 4f	2.ryy	8a 8ffL	.
.	.	8ffJ	.
4F 4A	.	8r	.
.	.	8ff	.
4r	.	8ffL	.
.	.	8ffJ	.
(4A	4F	8r	.
.	.	8ff	.
=108	=108	=108	=108
4G 4B-)	4F	8ffL	.
.	.	8ffJ	.
4G 4B-	4F	8r	.
.	.	8ff	.
4r	4r	8ffL	.
.	.	8ffJ	.
4G# (4Bn	4F	8r	.
.	.	8ff	.
=109	=109	=109	=109
4A 4c)	2F	8ffL	.
.	.	8ffJ	.
4A (4c#	.	8r	.
.	.	8ff	.
4B-X 4d)	2F	8ffL	.
.	.	8ffJ	.
4Bn 4d	.	8r	.
.	.	8ff	.
*v	*v	*	*
=110	=110	=110
1F 1cn 1e-X	8ff	.
.	(8fL	.
.	8en	.
.	8fJ	.
.	8g-L	.
.	8gn	.
.	8a-	.
.	8anJ	.
=111	=111	=111
1r	8b-L	.
.	8bn	.
.	8cc	.
.	8cc#J	.
.	8ddL	.
.	8ee-	.
.	8een	.
.	8ffJ)	.
=112	=112	=112
4r	(4.ff	p
4B-	.	.
.	8dd	.
4d	4b-)	.
4g	4b-	.
=113	=113	=113
4c	(4ee-	.
4e-	4gg)	.
4f	4a	.
4e-	8r	.
.	8a	.
=114	=114	=114
4d	(8ccL	.
.	8b-)	.
4A	(8dd	.
.	8ccJ)	.
4B-	(8ee-L	.
.	8dd)	.
4E- 4c	(8ff	.
.	8ee-J)	.
=115	=115	=115
[2F (2B-	(4.dd	.
.	16ee-LL	.
.	16ddJJ	.
4F] 4A)	8ccL	.
.	8dd	.
4r	8ee-	.
.	8eenJ)	.
=116	=116	=116
4r	(4.ff	.
4B-	.	.
.	24ee-LL	.
.	24dd	.
.	24ccJJ	.
4d	4b-)	.
4g	4b-	.
=117	=117	=117
(4c	(4ee-	.
4e-)	4gg)	.
4f	4a	.
4e-	8r	.
.	8a	.
=118	=118	=118
*^	*	*
4ryy	4d	(8b-L>	.
.	.	8dd)	.
4e-	4E-	(8g	.
.	.	8ccJ)	.
(4d	2F	(4b-/	.
4c)	.	4a)	.
*v	*v	*	*
=119	=119	=119
4B-	8b-L	f
.	8f	.
4r	8g	.
.	8aJ	.
2r	8b-L	.
.	8cc	.
.	8dd	.
.	8ee-J	.
=120	=120	=120
(8B-L	(4.ff	.
8f	.	.
8d	.	.
8fJ	8dd	.
8GL	4b-)	.
8d	.	.
8B-	4b-	.
8dJ	.	.
=121	=121	=121
8E-L	(4ee-	.
8c	.	.
.	32ffqLLL	.
.	32ee-q	.
.	32ddq	.
.	32ee-qJJJ	.
8G	4gg)	.
8cJ	.	.
8FL	4a	.
8e-	.	.
8c	8r	.
8e-J	8a	.
=122	=122	=122
*^	*	*
4ryy	4d)	(8ccL	.
.	.	8b-)	.
2f	4A	(8dd	.
.	.	8ccJ)	.
.	4B-	(8ee-L	.
.	.	8dd)	.
4c	4E-	(8ff	.
.	.	8ee-J)	.
=123	=123	=123	=123
(2B-	[2F	(4.dd	.
.	.	16ee-LL	.
.	.	16ddJJ	.
4A)	4F]	8ccL	.
.	.	8dd	.
4r	4r	8ee-	.
.	.	8eenJ)	.
*v	*v	*	*
=124	=124	=124
(8B-L	(4.ff	.
8f	.	.
8d	.	.
8fJ	24ee-XLL	.
.	24dd	.
.	24ccJJ	.
8GL	8b-L)	.
8d	8b-	.
8B-	8b-	.
8dJ	8b-J	.
=125	=125	=125
8E-L	(4ee-	.
8c	.	.
.	32ffqLLL	.
.	32ee-q	.
.	32ddq	.
.	32ee-qJJJ	.
8G	4gg)	.
8cJ	.	.
8FL	4a	.
8e-	.	.
8c	8r	.
8e-J)	8aa	.
=126	=126	=126
*^	*	*
2B-	4D	(12bb-L	.
.	.	12ff	.
.	.	12ddJ	.
.	4E-	12ggL	.
.	.	12ee-	.
.	.	12ccJ	.
4d	2F	12ffL	.
.	.	12dd	.
.	.	12b-J	.
4e-	.	12ee-L	.
.	.	12cc	.
.	.	12aJ	.
=127	=127	=127	=127
4d	4B-	4b-)	.
4BB-	2.ryy	8r	.
.	.	8f'	.
2r	.	8b-'L	.
.	.	8a'	.
.	.	8b-'	.
.	.	8cc'J	.
*v	*v	*	*
=128	=128	=128
4r	4dd	.
(4B-	4b- 4dd	.
4G	4b- (4dd	.
4E-)	4cc 4ee-)	.
=129	=129	=129
4F	4a 4cc	.
4FF	8r	.
.	8f'	.
2r	8cc'L	.
.	8b-'	.
.	8cc'	.
.	8dd'J	.
=130	=130	=130
4r	4ee-	.
(4c	4g 4ee-	.
4A	4cc (4ee-	.
4F)	4a 4ff)	.
=131	=131	=131
4B-	4b- 4dd	.
4BB-	8r	.
.	8b-'	.
2r	8dd'L	.
.	8ee-'	.
.	8ff'	.
.	8gg'J	.
=132	=132	=132
4r	4aa-	.
4DD 4D	4Bn 4f 4a-	.
4DD 4D	4B 4f 4a-	.
4CC 4C	4c 4f 4a-	.
=133	=133	=133
4BBBn 4BBn	4d 4f 4g	.
4Bn	8r	.
.	8dd'	.
4r	8gg'L	.
.	8ff#'	.
4B 4g	8gg'	.
.	8ddJ	.
=134	=134	=134
4c 4g	(8ffnL	.
.	8ee-J)	.
4C	8r	.
.	8g	.
2r	(16ccLL	.
.	16bn	.
.	16dd	.
.	16ccJJ	.
.	16ee-LL	.
.	16dd	.
.	16ff	.
.	16ee-JJ	.
=135	=135	=135
4r	4gg)	.
4CC 4C	4c 4e- 4g	.
4CC 4C	4c 4e- 4g	.
4BBB-X 4BB-X	4c 4e- 4g-	.
=136	=136	=136
4AAA 4AA	4c 4e- 4f	.
4A	8r	.
.	8cc'	.
4r	8ff'L	.
.	8een'	.
4A 4f	8ff'	.
.	8cc'J	.
=137	=137	=137
4B-X 4f	(8ee-XL	.
.	8ddJ)	.
4BB-	12r	.
.	(12bb-L	.
.	12aaJ	.
2r	12bb-L	.
.	12aa	.
.	12ggJ	.
.	12ffL	.
.	12ee-	.
.	12ddJ	.
=138	=138	=138
8r	4cc)	.
(8E-L	.	.
8B-	12r	.
.	(12ccL	.
8GJ	.	.
.	12ddJ	.
4c)	12ee-L	.
.	12dd	.
.	12ccJ	.
4r	12ggL	.
.	12ff	.
.	12ee-J	.
=139	=139	=139
8r	4dd)	.
8FL	.	.
(8B-	12r	.
.	(12bb-L	.
8A-J	.	.
.	12aaJ	.
4d)	12bb-L	.
.	12aa-	.
.	12ggJ	.
4r	12ffL	.
.	12ee-	.
.	12ddJ	.
=140	=140	=140
8r	4ee-)	.
(8GL	.	.
8e-	12r	.
.	(12ee-L	.
8B-J	.	.
.	12ffJ	.
4g)	12ggL	.
.	12ff	.
.	12ee-J	.
4r	12bb-L	.
.	12aa-	.
.	12ggJ	.
=141	=141	=141
8r	4ff)	.
(8DL	.	.
8B-	12r	.
.	(12bb-L	.
8FJ	.	.
.	12aanJ	.
4d)	12bb-L	.
.	12aa-	.
.	12ggJ	.
4r	12ffL	.
.	12gg	.
.	12aa-J	.
=142	=142	=142
*^	*	*
2r	[1E-	12ggL	.
.	.	12bb-	.
.	.	12aanJ	.
.	.	12ggL	.
.	.	12aa	.
.	.	12bb-J)	.
2G	.	(12ee-L	.
.	.	12gg	.
.	.	12ffJ	.
.	.	12ee-L	.
.	.	12ff	.
.	.	12ggJ)	.
=143	=143	=143	=143
2c	2E-]	(12ccL	.
.	.	12ee-	.
.	.	12ddJ	.
.	.	12ccL	.
.	.	12dd	.
.	.	12ee-J)	.
2c	2En	(12gL	.
.	.	12b-	.
.	.	12aJ	.
.	.	12gL	.
.	.	12a	.
.	.	12b-J	.
*v	*v	*	*
=144	=144	=144
!LO:TX:i:t=legato	!	!
8FL	16aLL	.
.	16f	.
8c	16g	.
.	16aJJ	.
8A	16b-LL	.
.	16cc	.
8cJ	16dd	.
.	16eenJJ	.
8FL	16ffLL	.
.	16gg	.
8c	16aa	.
.	16bb-JJ	.
8A	8cccL)	.
8cJ	8ee-J	.
=145	=145	=145
8FL	(16ddLL	.
.	16b-	.
8d	16cc	.
.	16ddJJ	.
8B-	16ee-LL	.
.	16ff	.
8dJ	16gg	.
.	16aaJJ	.
8FL	16bb-LL	.
.	16ccc	.
8d	16ddd	.
.	16eee-JJ	.
8B-	8fffL)	.
8dJ	8bb-J	.
=146	=146	=146
8FL	(16aaLL	.
.	16bb-	.
8e-	16ccc	.
.	16bb-JJ	.
8c	16aaLL	.
.	16bb-	.
8e-J	16ccc	.
.	16dddJJ	.
8FL	16eee-LL	.
.	16ddd	.
8c	16ccc	.
.	16bb-JJ	.
8A	16aaLL	.
.	16gg	.
8cJ	16ff	.
.	16ee-JJ	.
=147	=147	=147
8FL	16ddLL	.
.	16ff	.
8d	16ee-	.
.	16ddJJ	.
8B-	16ee-LL	.
.	16ff	.
8dJ	16gg	.
.	16aaJJ	.
8FL	16bb-LL	.
.	16aa	.
8d	16gg	.
.	16ffJJ	.
8B-	16ee-LL	.
.	16dd	.
8dJ	16cc	.
.	16b-JJ)	.
=148	=148	=148
4F 4A 4c	4a 4cc 4ff	.
4r	4f	.
(8E-L	(4.cc	.
8F	.	.
8E-	.	.
8FJ	16aLL	.
.	16fJJ	.
=149	=149	=149
8DL	4b-	.
8F	.	.
8D	4bn)	.
8FJ	.	.
8E-L	(4.cc	.
8F	.	.
8E-	.	.
8FJ	16aLL	.
.	16fJJ	.
=150	=150	=150
8DL	4b-X)	.
8F	.	.
8D	4r	.
8FJ	.	.
8E-L	8cc'	.
8F	(4cc	.
8E-	.	.
8FJ	16aLL	.
.	16fJJ	.
=151	=151	=151
8DL	8b-L	.
8F	8b-')	.
8D	8bn'	.
8FJ	8b'J	.
8E-L	8cc'	.
8F	(4cc	.
8E-	.	.
8FJ	16aLL	.
.	16fJJ	.
=152	=152	=152
8D)	4b-X)	.
*clefG2	*	*
(8fL	.	.
8d	4r	.
8fJ	.	.
8e-L	(16bbnLL	.
.	16ccc	.
8f	16ddd	.
.	16cccJJ	.
8e-	16bb-LL	.
.	16aa	.
8fJ	16gg	.
.	16ffJJ	.
=153	=153	=153
4d)	16bb-LL	.
.	16ff	.
.	16ddd	.
.	16bb-JJ	.
4r	16fffLL	.
.	16ddd	.
.	16fff	.
.	16dddJJ	.
4r	16fffLL	.
.	16eee-	.
.	16ddd	.
.	16cccJJ	.
*clefF4	*	*
4D 4B-	16bb-LL	.
.	16aa	.
.	16gg	.
.	16ffJJ	.
=154	=154	=154
4E- 4B-	16ggLL	.
.	16ee-	.
.	16bb-	.
.	16aaJJ	.
4r	16bb-LL	.
.	16aa	.
.	16bb-	.
.	16aaJJ	.
4r	16bb-LL	.
.	16aa	.
.	16gg	.
.	16ffJJ	.
4E- 4B- 4c	16ee-LL	.
.	16dd	.
.	16cc	.
.	16b-JJ	.
=155	=155	=155
(8FL	16fLL)	.
.	(16ff	.
8d	16gg	.
.	16ffJJ	.
8B-	16ee-LL	.
.	16dd	.
8dJ	16cc	.
.	16b-JJ	.
8FL	4.ccTT	.
8e-	.	.
8A	.	.
8e-J	16b-LL	.
.	16ccJJ)	.
=156	=156	=156
!	!LO:TX:i:t=legato	!
4B-)	16ddLL	.
.	16ee-	.
.	16ff	.
.	16ee-JJ	.
8r	16ddLL	.
.	16cc	.
8c	16b-	.
.	16aJJ	.
4d	16b-LL	.
.	16cc	.
.	16dd	.
.	16ccJJ	.
8r	16b-LL	.
.	16a-	.
8DD 8D	16g	.
.	16f#JJ	.
=157	=157	=157
4EE- 4E-	16gLL	.
.	16an	.
.	16b-	.
.	16aJJ	.
4r	16gLL	.
.	16fn	.
.	16e-	.
.	16dJJ	.
2r	16cLL	.
.	16d	.
.	16e-	.
.	16dJJ	.
.	16cLL	.
.	16B-	.
.	16A	.
.	16GJJ	.
=158	=158	=158
1FFF 1FF	8F<L	.
.	16G<L	.
.	16A<JJ	.
.	16B-LL	.
.	16c	.
.	16d	.
.	16e-JJ	.
.	16gLL	.
.	16f	.
.	16e-	.
.	16dJJ	.
.	16e-LL	.
.	16f	.
.	16g	.
.	16aJJ	.
=159	=159	=159
4FF 4BB- 4D	16b-LL	.
.	16a	.
.	16g	.
.	16fJJ	.
4r	16gLL	.
.	16a	.
.	16b-	.
.	16ccJJ	.
4FF 4BB- 4D	16ddLL	.
.	16cc	.
.	16b-	.
.	16aJJ	.
4r	16b-LL	.
.	16cc	.
.	16dd	.
.	16ee-JJ	.
=160	=160	=160
4F 4B- 4d	16ffLL	.
.	16dd	.
.	16ff	.
.	16ddJJ	.
4r	16bb-LL	.
.	16ff	.
.	16bb-	.
.	16ffJJ	.
2r	16dddLL	.
.	16bb-	.
.	16ddd	.
.	16bb-JJ	.
.	16fffLL	.
.	16ddd	.
.	16fff	.
.	16dddJJ	.
=161	=161	=161
1r	16bb-LL	.
.	16ddd	.
.	16bb-	.
.	16dddJJ	.
.	16ffLL	.
.	16bb-	.
.	16ff	.
.	16bb-JJ	.
.	16ddLL	.
.	16ff	.
.	16dd	.
.	16ffJJ	.
.	16b-LL	.
.	16dd	.
.	16b-	.
.	16ddJJ	.
=162	=162	=162
(8FL	4f	.
8d	.	.
8B-	(4.ff	.
8dJ	.	.
8FL	.	.
8d	16ggLL	.
.	16ffJJ	.
8B-	16ee-LL	.
.	16dd	.
8dJ	16cc	.
.	16b-JJ)	.
=163	=163	=163
.	(>32b-qLLL	.
.	32ccq	.
.	32ddqJJJ	.
8FL	1ccTT	.
8e-	.	.
8A	.	.
8e-J	.	.
8FL	.	.
8e-	.	.
8A	.	.
8e-J	.	.
=164	=164	=164
.	32b-qLLL	.
.	32ccqJJJ	.
4B- 4d)	8b-L)	.
.	8b-J	.
4B- 4d	8r	.
.	8b-	.
4r	8b-L	.
.	8b-J	.
*clefG2	*	*
4B- (>4d	8r	.
.	(8b-	.
=165	=165	=165
4B- 4a)	8ccL)	.
.	8ccJ	.
4B- 4a	8r	.
.	8cc	.
4r	8ccL	.
.	8ccJ	.
4B- (>4a	8r	.
.	(8cc	.
=166	=166	=166
4B- 4a-)	8ddL)	.
.	8ddJ	.
4B- (>4a-	8r	.
.	(8dd	.
4B- 4g)	8ee-L)	.
.	8ee-J	.
4B- (>4g	8r	.
.	(8een	.
=167	=167	=167
4B- 4d)	8ffL)	.
.	8ffJ	.
4B- 4d	8r	.
.	(8ff#	.
4B- 4e-	8ggL	.
.	8gg)	.
4B- 4c	8aan	.
.	8aaJ	.
*clefF4	*	*
=168	=168	=168
8BB- 8B-L	(16ddLL	f
.	16bb-	.
8BB- 8B-J	16ddd	.
.	16bb-JJ	.
8r	16dddLL	.
.	16bb-	.
8BB- (8B-	16ddd	.
.	16bb-JJ	.
8D 8dL)	16ddLL	.
.	16bb-	.
8D 8dJ	16ddd	.
.	16bb-JJ	.
8r	16dddLL	.
.	16bb-	.
8BB- (8B-	16ddd	.
.	16bb-JJ	.
=169	=169	=169
8GG 8GL<)	16ddLL	.
.	16bb-	.
8GG 8GJ	16ddd	.
.	16bb-JJ	.
8r	16dddLL	.
.	16bb-	.
8GG\ (8G\	16ddd	.
.	16bb-JJ	.
8BB- 8B-L)	16ddLL	.
.	16bb-	.
8BB- 8B-J	16ddd	.
.	16bb-JJ	.
8r	16dddLL	.
.	16bb-	.
(8GG 8G	16ddd	.
.	16bb-JJ	.
=170	=170	=170
8DD) 8DL	16ddLL	.
.	16bb-	.
8DD 8DJ	16ddd	.
.	16bb-JJ	.
8r	16dddLL	.
.	16bb-	.
(8DD 8D	16ddd	.
.	16bb-JJ	.
8EE-) 8E-L	16ddLL	.
.	16bb-	.
8EE- 8E-	16ddd	.
.	16bb-JJ	.
8EEn 8En	16dddLL	.
.	16bb-	.
8EE 8EJ	16ddd)	.
.	16bb-JJ	.
=171	=171	=171
*	*^	*
2FF;< 2F	2ddd;	4dd 4ff 4bb-	.
!	!	!LO:TX:i:a:t=Cadenza in tempo	!
.	.	4ryy	.
2r	2ryy	8r	.
.	.	(16fLL	.
.	.	16aJJ	.
.	.	16gLL	.
.	.	16b-	.
.	.	16a	.
.	.	16ccJJ	.
*	*v	*v	*
=172	=172	=172
1r	8b-)	.
.	(16aLL	.
.	16ccJJ	.
.	16b-LL	.
.	16dd	.
.	16cc	.
.	16ee-JJ	.
.	8dd)	.
.	(16ccLL	.
.	16ee-JJ	.
.	16ddLL	.
.	16ff	.
.	16ee-	.
.	16ggJJ)	.
=173	=173	=173
!LO:TX:i:t=legato	!LO:TX:i:t=dolce	!
8FL	(4.ff	.
8d	.	.
8B-	.	.
8dJ	8dd	.
8FL	4b-)	.
8d	.	.
8B-	4b-	.
8dJ	.	.
=174	=174	=174
8FL	(4ee-	.
8e-	.	.
.	32ffqLLL	.
.	32ee-q	.
.	32ddq	.
.	32ee-qJJJ	.
8c	4gg)	.
8e-J	.	.
8FL	4a	.
8e-	.	.
8c	4r	.
8e-J	.	.
=175	=175	=175
8FL	(4.ff	.
8d-	.	.
8B-	.	.
8d-J	8dd-	.
8FL	8b-L)	.
8d-	8b-	.
8B-	8b-	.
8d-J	8b-J	.
=176	=176	=176
8FL	(4ee-	.
8e-	.	.
.	32ffqLLL	.
.	32ee-q	.
.	32ddnq	.
.	32ee-qJJJ	.
8c	4gg-)	.
8e-J	.	.
8FL	4a	.
8e-	.	.
8c	4r	.
8e-J	.	.
=177	=177	=177
4G- 4d-	8b-'L	.
.	(8bb-	.
4r	8ccc	.
.	8ddd-J	.
2r	8cccL	.
.	8bb-	.
.	8aa-	.
.	8gg-J)	.
=178	=178	=178
*^	*	*
8r	1G-	(2ff	.
(8B-L	.	.	.
8c	.	.	.
8d-J)	.	.	.
(8d-L	.	2een)	.
8c)	.	.	.
(8c	.	.	.
8B-J)	.	.	.
=179	=179	=179	=179
4A	4F	8ffL	.
.	.	8ffJ	.
4A	4F	8r	.
.	.	8ff	.
4r	4r	8ffL	.
.	.	8ffJ	.
(4A	4F	8r	.
.	.	8ff	.
=180	=180	=180	=180
4Gn 4B-)	4F	8ffL	.
.	.	8ffJ	.
4G 4B-	4F	8r	.
.	.	8ff	.
4r	4r	8ffL	.
.	.	8ffJ	.
4G# (4Bn	4F	8r	.
.	.	8ff	.
=181	=181	=181	=181
4A 4c	2F	8ffL	.
.	.	8ffJ	.
4A 4c#	.	8r	.
.	.	8ff	.
4B-X 4d	2F	8ffL	.
.	.	8ffJ	.
4Bn 4d)	.	8r	.
.	.	8ff	.
*v	*v	*	*
=182	=182	=182
1F 1cn 1e-X	(8ffL	.
.	8aa)	.
.	(8aa	.
.	8cccJ)	.
.	(8cccL	.
.	8eee-X)	.
.	(8eee-	.
.	8cccJ)	.
=183	=183	=183
1r	(8cccL	.
.	8aa)	.
.	(8aa	.
.	8ffJ)	.
.	(8ffL	.
.	8een)	.
.	(8ee	.
.	8ffJ)	.
=184	=184	=184
(8FL	(8ffL	.
8A)	8eenJ)	.
(8A	2ee-	.
8cJ)	.	.
(8cL	.	.
8e-)	.	.
(8e-	[4ee-	.
8cJ)	.	.
=185	=185	=185
(8cL	4ee-]	.
8A)	.	.
(8A	(4ee-'	.
8FJ)	.	.
(8F#L	4ee-'	.
8G	.	.
8A-	4ee-')	.
8AnJ	.	.
=186	=186	=186
8B-L)	4dd	.
8B-J	.	.
8r	4a- (4ff	.
8B-	.	.
8B-L	4g 4ee-	.
8B-J	.	.
8r	4f# 4dd)	.
8B-	.	.
=187	=187	=187
8B-L	4g 4ee-	.
8B-J	.	.
8r	4b- (4gg	.
8B-	.	.
8B-L	4a- 4ffn	.
8B-J	.	.
8r	4g 4een)	.
8B-	.	.
=188	=188	=188
8B-L	4a- 4ff	.
8B-J	.	.
8r	4ff (4aa-	.
8B-	.	.
8B-L	4ee-X 4gg	.
8B-J	.	.
8r	4dd 4ff#)	.
8B-	.	.
=189	=189	=189
4Bn	8dd 8ffn 8ggL	f
.	8dd 8ff 8ggJ	.
4BBn 4B	8r	.
.	8dd 8ff 8gg	.
4C 4c	8ee- 8gg 8eee-L	.
.	8ee- 8gg 8eee-J	.
4BB- 4B-	8r	.
.	8cc 8ee- 8gg	.
=190	=190	=190
4AA 4A	8cc 8ee- 8ffL	.
.	8cc 8ee- 8ffJ	.
4AA 4A	8r	.
.	8cc 8ee- 8ff	.
4BB- 4B-	8dd 8ff 8dddL	.
.	8dd 8ff 8dddJ	.
4AA 4A	8r	.
.	8b- 8dd 8ff	.
=191	=191	=191
4GG 4G	8b- 8dd 8ee-L	.
.	8b- 8dd 8ee-J	.
4GG 4G	8r	.
.	8b- 8dd 8ee-	.
4AA 4A	8cc 8ee- 8cccL	.
.	8cc 8ee- 8cccJ	.
4GG 4G	8r	.
.	8a 8cc 8ee-	.
=192	=192	=192
4FF# 4F#	8a 8cc 8ddL	.
.	8a 8cc 8ddJ	.
4FF# 4F#	8r	.
.	8a 8cc 8dd	.
4GG 4G	8b- 8dd 8bb-L	.
.	8b- 8dd 8bb-J	.
4FFn 4Fn	8r	.
.	8g 8b- 8dd	.
=193	=193	=193
8EE- 8E-	8g 8b- 8ccL<	.
!LO:TX:i:t=legato	!	!
8GL	8g 8b- 8ccJ	.
8B-	8r	.
8GJ	(8cc	.
8E-L	8bb-L)	.
8G	8bb-'	.
8B-	(8bb-	.
8GJ	8ccJ)	.
=194	=194	=194
8FL	8dd'L	.
8A-	8dd'J	.
8B-	8r	.
8A-J	(8dd	.
8FL	8bb-L)	.
8A-	8bb-'	.
8B-	(8bb-	.
8A-J	8ddJ)	.
=195	=195	=195
8GL	8ee-'L	.
8B-	8ee-'J	.
8e-	8r	.
8B-J	(8een	.
8DL	8ffL)	.
8A-	8ff'J	.
8B-	8r	.
8A-J	(8ff#	.
=196	=196	=196
8E-L	8ggL)	.
8e-	8gg'	.
8C	8aan'	.
8cJ	8aa'J	.
8DL	8bb-'L	.
8d	8bb-'	.
8AAn	8ccc'	.
8AnJ	8ccc'J	.
=197	=197	=197
2BB- 2B-	4.ddd-	.
.	(16.bb-TLL	.
.	64aaLL	.
.	64bb-JJJJ	.
2GG- 2G-	4.ddd-)	.
.	(16.bb-TLL	.
.	64aaLL	.
.	64bb-JJJJ	.
=198	=198	=198
2EEn; 2En;	N([2ddd-;)	.
!	!LO:TX:i:t=ad libitum	!
2ryy	16ddd-]LL	.
.	16bb-	.
.	16gg	.
.	16eenJJ	.
.	16dd-LL	.
.	16b-	.
.	16g	.
.	16enJJ	.
=199-	=199-	=199-
*^	*	*
16d-LL>	4ryy	4ryy	.
16B-	.	.	.
16G	.	.	.
16EnJJ	.	.	.
16D-LL	8.ryy	4ryy	.
16BB-	.	.	.
16GGJJ	.	.	.
16ryy	16EEn\N)	.	.
[<2F;	2FFF; 2FF;	2ryy	.
*v	*v	*	*
=	=	=
8ryy	(64F<LLL]	.
.	64A<	.
.	64G<	.
.	64F<	.
.	64G<	.
.	64A<	.
.	64B-<	.
.	64c<	.
2r	64dn	.
.	64e-X	.
.	64f	.
.	64g	.
.	64a	.
.	64b-	.
.	64cc	.
.	64ddnJJJ	.
.	64ee-XLLL	.
.	64ff	.
.	64gg	.
.	64aa	.
.	64bb-	.
.	64ccc	.
.	64dddn	.
.	64eee-XJJJ	.
.	8fff)	.
.	16.r;	.
=-	=-	=-
.	32b-	.
.	(32b-qLLL	.
.	32ccq	.
.	32ddqJJJ	.
2r	()2ccT	.
*	*rscale:1/4	*
*	*Xtuplet	*
[2F [2A [2c [2e-X	24bnLL	.
.	24cc	.
.	24dd	.
.	24ee-	.
.	24ff	.
.	24gg	.
.	24aa	.
.	24bb-X	.
.	24ccc	.
.	24ddd	.
.	24eee-	.
.	24dddJJ	.
*	*rscale:1	*
4F] 4A] 4c] 4e-]	16fffLL	.
.	16eee-)	.
.	16ddd'	.
.	16ccc'JJ	.
2.ryy	(16eee-LL	.
.	16ddd)	.
.	16ccc'	.
.	16bb-'JJ	.
.	(16dddLL	.
.	16ccc)	.
.	16bb-'	.
.	16aa'JJ	.
.	(16cccLL	.
.	16bb-)	.
.	16aa'	.
.	16gg'JJ	.
=-	=-	=-
1ryy	(8bb-L	.
.	8aa)	.
.	8gg'	.
.	8ff'J	.
.	(8aaL	.
.	8gg)	.
.	8ff'	.
.	8ee-'J	.
1ryy	(8ggL	.
.	8ff)	.
.	8ee-'	.
.	8dd'J	.
.	(4ff	.
.	4ee-)	.
4ryy	4dd	.
1ryy	4cc'	.
.	8bn'L	.
.	8cc'	.
.	8dd-'	.
.	8ddn'J	.
.	8ee-;	.
.	8een;	.
=200	=200	=200
!	!LO:TX:a:t=a tempo	!
4r	(4.ff	p
4B-	.	.
.	8dd	.
4d	4b-)	.
4g	4b-	.
=201	=201	=201
4c	(4ee-X	.
4e-	4gg)	.
4f	4a	.
4e-	8r	.
.	8a	.
=202	=202	=202
*^	*	*
4ryy	4d	(8ccL	.
.	.	8b-)	.
2f	(4A	(8dd	.
.	.	8ccJ)	.
.	4B-)	(8ee-L	.
.	.	8dd)	.
4c	4E-	(8ff	.
.	.	8ee-J)	.
=203	=203	=203	=203
(2B-	[2F	(4.dd	.
.	.	16ee-LL	.
.	.	16ddJJ	.
4A)	4F]	8ccL	.
.	.	8dd	.
4r	4r	8ee-	.
.	.	8eenJ)	.
*v	*v	*	*
=204	=204	=204
8BB-L	(4.ff	f
(8B-	.	.
8d	.	.
8B-J)	24ee-XLL	.
.	24dd	.
.	24ccJJ	.
8GGL	8b-L)	.
(8G	8b-	.
8B-	8b-	.
8GJ)	8b-J	.
=205	=205	=205
8CCL	(4ee-	.
(8C	.	.
.	32ffqLLL	.
.	32ee-q	.
.	32ddq	.
.	32ee-qJJJ	.
8E-	4gg)	.
8CJ)	.	.
8FFL	4a	.
(8F	.	.
8A	8r	.
8FJ)	8ee-	.
=206	=206	=206
*	*tuplet	*
4B-	(12ddL	.
.	12ff	.
.	12bb-J	.
4E-	12ggL	.
.	12ee-	.
.	12ccJ	.
4F	12ffL	.
.	12dd	.
.	12b-J	.
4FF	12ee-L	.
.	12cc	.
.	12aJ	.
=207	=207	=207
*	*Xtuplet	*
4D 4B-	12b-L)	.
.	12bb-	.
.	12bb-J	.
4r	12bb-L	.
.	12bb-	.
.	12bb-J	.
4r	(12bb-L	.
.	12aa	.
.	12ggJ	.
4D 4B-	12ffL	.
.	12ee-	.
.	12ddJ	.
=208	=208	=208
4E- 4B-	12ccL)	.
.	12gg	.
.	12ggJ	.
4r	12ggL	.
.	12gg	.
.	12ggJ	.
4r	(12ggL	.
.	12ff	.
.	12ee-J	.
4E- 4A	12ddL	.
.	12ee-	.
.	12ccJ	.
=209	=209	=209
*^	*	*
2.B-	4D	16eenLL	.
.	.	16ff	.
.	.	16gg	.
.	.	16ffJJ	.
.	4G	16ee-LL	.
.	.	16dd	.
.	.	16cc	.
.	.	16b-JJ)	.
.	4E-	(2ccTT	.
4A	4F	.	.
*v	*v	*	*
.	16b-qLL	.
.	16ccqJJ	.
=210	=210	=210
4D 4B-	8b-)	.
.	(16bb-LL	.
.	16aaJJ	.
4r	16bb-LL	.
.	16aa	.
.	16bb-	.
.	16aaJJ	.
4r	16bb-LL	.
.	16aa	.
.	16gg	.
.	16ffJJ	.
4D 4B-	16ee-LL	.
.	16dd	.
.	16cc	.
.	16b-JJ	.
=211	=211	=211
4E- 4B-	8g)	.
.	(16ggLL	.
.	16ff#JJ	.
4r	16ggLL	.
.	16ff#	.
.	16gg	.
.	16ff#JJ	.
4r	16ggLL	.
.	16ffn	.
.	16ee-	.
.	16ddJJ	.
4E- 4c	16ccLL	.
.	16b-	.
.	16a	.
.	16gJJ	.
=212	=212	=212
!LO:TX:i:t=legato	!	!
8FL	8fL	.
8d	16gL	.
.	16aJJ	.
8B-	16b-LL	.
.	16cc	.
8dJ	16dd	.
.	16ee-JJ	.
8FL	16ffLL	.
.	16gg	.
8d	16aa	.
.	16bb-JJ	.
8B-	16cccLL	.
.	16ddd	.
8dJ	16eee-	.
.	16fffJJ)	.
=213	=213	=213
8FL	1cccTT	.
8e-	.	.
8A	.	.
8e-J	.	.
8FL	.	.
8e-	.	.
8A	.	.
8e-J	.	.
.	(16bb-qLL	.
.	16cccqJJ)	.
=214	=214	=214
8dL	4bb-	.
8B-	.	.
8d	4r	.
8B-J	.	.
8dL	4r	.
8B-	.	.
8d	8r	.
8B-J	8b-	p
*clefG2	*	*
=215	=215	=215
8fL	(4.aa-	.
8B-	.	.
8f	.	.
8B-J	8ff	.
8a-L	4dd)	.
8B-	.	.
8a-	4dd	.
8B-J	.	.
=216	=216	=216
8gL	4ee-	.
8B-	.	.
8d	4ff	.
8B-J	.	.
8e-L	4gg	.
8B-	.	.
8e-	8r	.
8B-J	8gg	.
=217	=217	=217
8cL	(8ffL	.
8B-	8ee-	.
8c	8dd	.
8B-J	8ccJ	.
8cL	8b-L	.
8B-	8an	.
8c	8ee-	.
8B-J	8aJ	.
=218	=218	=218
4B- 4d	8b-L)	.
.	8cc'	.
4r	8dd'	.
.	8ee-'J	.
2r	8een'L	.
.	8ff'	.
.	8ff#'	.
.	8gg'J	.
=219	=219	=219
(8fL	(4.aa-	.
8B-	.	.
8f	.	.
*	*tuplet	*
8B-J	24ggLL	.
.	24ff	.
.	24ee-JJ	.
8a-L	8ddL	.
8B-	8dd)	.
8a-	8dd	.
8B-J	8ddJ	.
=220	=220	=220
8gL	4ee-	.
8B-	.	.
8d	(8.ffTL	.
8B-J	.	.
.	32ee-LL	.
.	32ffJJJ	.
8e-L	4gg)	.
8B-	.	.
8e-	8r	.
8B-J	8gg	.
=221	=221	=221
8cL	(8ffL	.
8B-	8ee-	.
8c	8dd	.
8B-J	8ccJ	.
8cL	8b-L	.
8B-	8an	.
8c	8ee-	.
8B-J)	8aJ	.
=222	=222	=222
*^	*	*
4B- 4d	2ryy	4b-)	.
4r	.	8r	.
.	.	8dd	.
*clefF4	*clefF4	*	*
(4c	2F	(8ffL	.
.	.	8ee-	.
4e-)	.	8cc	.
.	.	8aJ	.
=223	=223	=223	=223
4d	4B-	4b-)	.
4r	4r	8r	.
.	.	(16ddLL	.
.	.	16b-JJ	.
(4c	2F	8ffL	.
.	.	8ee-	.
4e-)	.	8cc	.
.	.	8aJ	.
*v	*v	*	*
=224	=224	=224
4d	4b-)	.
4B-	8r	.
.	8ff	f
4FF 4F	4cc 4ee- 4ff 4aa	.
4FF 4F	4cc 4ee- 4ff 4aa	.
=225	=225	=225
4BBB- 4BB-	4dd 4ff 4bb-	.
4r	4r	.
2r	2r	.
==	==	==
*-	*-	*-
!!!RDF**kern: N = linked
!!!RDF**kern: > = above
!!!RDF**kern: < = below
!!!YOR: Alte Mozart-Ausgabe, Band 20, Breitkopf &amp; H&auml;rtel 1877-1883.
!!!YOY: 1878
!!!YEC: 2018 Craig Stuart Sapp
!!!YEM: Licence: (CC BY-NC-SA 4.0) https://creativecommons.org/licenses/by-nc-sa/4.0
!!!YER: 2018
!!!ENC: Craig Stuart Sapp
!!!END: 2009/10/09
!!!EED: Craig Stuart Sapp
!!!EEV: 2018/06/18
!!!EFL: 57/69
!!!AGN: piano sonata
!!!AFR: sonata-rondo
!!!title: @{OTL}, K 333 (315c), mvmt. @{OMV}
